X:192
T:Reel 192
M:4/4
K:Amix
L:1/8
E2GE DB,A,G,|E,A,A,C B,A,G,E,|EDB,A, B,CDF|EAAF GEDB,|A,2A,A, GA,EA,|E2B,E DEFG|EDB,C DB,A,G,|A,2B,A, G,A,B,D|EAAG E2DB,|A,2B,A, DB,G,B,|E2 (3EFG AGAG|BABA GEDB,|EAAG E2ED|ED (3EFG ABGA|BcAF GEFD|B,DEF GEDB,|
